X:1
T:Title
%%score { ( 1 3 ) | ( 2 4 ) }
L:1/8
M:3/4
K:Bb
V:1 treble nm="Grand Piano"
V:3 treble 
V:2 bass 
V:4 bass 
V:1
 z2 z[Q:1/4=92] [B,D] [DF][Fd] | [Ec]3 [DB] [DB]>D | E3 C FB | A3 G [EG]>[_D=E] | %4
 [DF]3 [B,D] [DF][Fd] | [Ec]3 B B>C | C3 G G[FG] | [=Ec]3 [Ed] [Ec]>[EG] |[M:9/16] c4- c/ | %9
[M:3/8] Fe[Fd] |[M:3/4] [Ec]4 z2 | [DB]4 z2 | E3 F G[Ge] | [Fd]3 d fe | c4 z2 | [DB]4 z2 | %16
 [DF]3 [FB] [EB][Ec][Q:1/4=89][Q:1/4=86][Q:1/4=83][Q:1/4=81][Q:1/4=78][Q:1/4=75][Q:1/4=72] | %17
[M:9/16] [DB]4- [DB]/ |] %18
V:2
 z2 z [B,,F,] [B,,B,][B,,B,] | [B,,B,]3 [B,,F,] [B,,F,]>[B,,F,B,] | %2
 [C,F,A,]3 [F,A,] [F,A,C][F,CE] | [F,CE]3 [F,A,E] [B,,B,]>[B,,G,] | %4
 [B,,F,]3 [B,,F,] [B,,B,][B,,B,] | [B,,B,]3 [D,F,B,] [E,G,C]>[E,G,] | %6
 [E,G,]3 [E,B,E] [E,B,E][D,=B,] | [C,C]3 [C,B,] [C,B,]>[C,B,] |[M:9/16] [F,A,E]4- [F,A,E]/ | %9
[M:3/8][K:treble] DG[K:bass][B,,B,] |[M:3/4] [F,A,]F, .F,2 F[F,A,E] | %11
 [B,,B,]B,, B,,[B,,F,B,] [B,,B,][B,,F,B,] | [F,A,C]3 [F,A,D] [F,A,E][F,A,] | %13
 [B,,B,]3[K:treble] F A[B,G] | E-[F,E-] [F,E][K:treble]E G[K:bass][F,A,F] | [B,,B,]B,, B,,D, E,G, | %16
 B,3 [D,_A,] [E,G,][E,^F,] |[M:9/16] [B,,F,]4- [B,,F,]/ |] %18
V:3
 x6 | x6 | x6 | x6 | x6 | x6 | x6 | x6 |[M:9/16] x9/2 |[M:3/8] x3 |[M:3/4] z A, A,F dc | %11
 z B, B,D [DG]D | x6 | x6 | z A, A,F ed | z B, B,[B,FB] [B,GB][B,EG] | x6 |[M:9/16] x9/2 |] %18
V:4
 x6 | x6 | x6 | x6 | x6 | x6 | x6 | x6 |[M:9/16] x9/2 |[M:3/8][K:treble] x2[K:bass] x |[M:3/4] x6 | %11
 x6 | x6 | x3[K:treble] x3 | .[F,A,]2 z2[K:treble] z2[K:bass] | x6 | x6 |[M:9/16] x9/2 |] %18

